X: 54
T:King George IV
M:4/4
L:1/8
F:http://blackrosetheband.googlepages.com/ABCTUNES.ABC May 2009
C:Trad?
S:Deanta - Ready for the Storm - Track 1
R:Reel
K:Am
T:Part A
"Am"A2 A2 A3B | cBAB e3d | A3d e3A | dedB "G"BAGB |
"Am"A2 Ad e3A | Bcd2 e3d | "G"B2 d2 gz2 e | "Em"dedB BAGB |
"Am"A2 Ad e3A | Bcd2 e3d | A3d e3A | "G"dedB BAGB |
"Am"A2 Ad e3A | Bcd2 e3d | "G"B2 d2 gz2 e | "Em"dedB BAGz |
T:Part B
"Am"e4 "D"A3B | cBAB e2 A2 | "Am"e4 "D"A2^ff | "G"gz ag ^fedf |
"Am"e2 ee "Dsus"A2 AB | cBAc e2d2 | "G"B2d2 g3e | "Em"dedB BAGB |
"Am"e2 e2 "D"A3B | cBAc e2 d2 | "Am"e2 e2 "D"A2 ^ff | "G"g2ag ^fedB |
"D"a3^f "G"g3e | "D"^f2 fd B2 A2 | "G"B2 d2 "Em"g3e | dedB "G"BAGz |

